svgs/template-light.svg

<svg width="400" height="400" viewBox="0 0 400 400" fill="none" xmlns="http://www.w3.org/2000/svg">
<g id="template">
<g id="template_2">
<path id="Path" d="M194.349 31.9965C194.349 24.7984 188.547 19 181.345 19H43.0039C35.8017 19 30 24.7984 30 31.9965V241.34C30 248.538 35.8017 254.336 43.0039 254.336H310.683C317.885 254.336 323.687 248.538 323.687 241.34V57.9894C323.687 50.7914 317.885 44.9929 310.683 44.9929H207.453C200.15 44.9929 194.349 39.1945 194.349 31.9965Z" fill="#F0F3F5"/>
<path id="Shape" d="M56.2078 141.167V139.167C55.1032 139.167 54.2078 140.062 54.2078 141.167H56.2078ZM73.3128 141.167H75.3128C75.3128 140.062 74.4174 139.167 73.3128 139.167V141.167ZM73.3128 157.662V159.662C74.4174 159.662 75.3128 158.767 75.3128 157.662H73.3128ZM56.2078 157.662H54.2078C54.2078 158.767 55.1032 159.662 56.2078 159.662V157.662ZM231.96 141.167V139.167C230.855 139.167 229.96 140.062 229.96 141.167H231.96ZM249.065 141.167H251.065C251.065 140.062 250.169 139.167 249.065 139.167V141.167ZM249.065 157.662V159.662C250.169 159.662 251.065 158.767 251.065 157.662H249.065ZM231.96 157.662H229.96C229.96 158.767 230.855 159.662 231.96 159.662V157.662ZM56.2078 364.504V362.504C55.1032 362.504 54.2078 363.4 54.2078 364.504H56.2078ZM73.3128 364.504H75.3128C75.3128 363.4 74.4174 362.504 73.3128 362.504V364.504ZM73.3128 381V383C74.4174 383 75.3128 382.105 75.3128 381H73.3128ZM56.2078 381H54.2078C54.2078 382.105 55.1032 383 56.2078 383V381ZM231.96 364.504V362.504C230.855 362.504 229.96 363.4 229.96 364.504H231.96ZM249.065 364.504H251.065C251.065 363.4 250.17 362.504 249.065 362.504V364.504ZM249.065 381V383C250.17 383 251.065 382.105 251.065 381H249.065ZM231.96 381H229.96C229.96 382.105 230.855 383 231.96 383V381ZM56.2078 143.167H73.3128V139.167H56.2078V143.167ZM71.3128 141.167V157.662H75.3128V141.167H71.3128ZM73.3128 155.662H56.2078V159.662H73.3128V155.662ZM58.2078 157.662V141.167H54.2078V157.662H58.2078ZM231.96 143.167H249.065V139.167H231.96V143.167ZM247.065 141.167V157.662H251.065V141.167H247.065ZM249.065 155.662H231.96V159.662H249.065V155.662ZM233.96 157.662V141.167H229.96V157.662H233.96ZM56.2078 366.504H73.3128V362.504H56.2078V366.504ZM71.3128 364.504V381H75.3128V364.504H71.3128ZM73.3128 379H56.2078V383H73.3128V379ZM58.2078 381V364.504H54.2078V381H58.2078ZM231.96 366.504H249.065V362.504H231.96V366.504ZM247.065 364.504V381H251.065V364.504H247.065ZM249.065 379H231.96V383H249.065V379ZM233.96 381V364.504H229.96V381H233.96Z" fill="#999999"/>
<path id="Path_2" d="M80.2151 149.363H82.2151" stroke="#999999" stroke-width="4" stroke-linecap="round" stroke-linejoin="round"/>
<path id="Path_3" d="M92.6191 149.363H218.456" stroke="#999999" stroke-width="4" stroke-linecap="round" stroke-linejoin="round" stroke-dasharray="4.16 10.4"/>
<path id="Path_4" d="M223.658 149.363H225.658" stroke="#999999" stroke-width="4" stroke-linecap="round" stroke-linejoin="round"/>
<g id="Group">
<path id="Path_5" d="M80.2148 372.704H82.2148" stroke="#999999" stroke-width="4" stroke-linecap="round" stroke-linejoin="round"/>
<path id="Path_6" d="M92.6189 372.704H218.456" stroke="#999999" stroke-width="4" stroke-linecap="round" stroke-linejoin="round" stroke-dasharray="4.16 10.4"/>
<path id="Path_7" d="M223.658 372.704H225.658" stroke="#999999" stroke-width="4" stroke-linecap="round" stroke-linejoin="round"/>
</g>
<g id="Group_2">
<path id="Path_8" d="M64.8099 163.859V165.859" stroke="#999999" stroke-width="4" stroke-linecap="round" stroke-linejoin="round"/>
<path id="Path_9" d="M64.8099 175.656V350.408" stroke="#999999" stroke-width="4" stroke-linecap="round" stroke-linejoin="round" stroke-dasharray="3.95 9.87"/>
<path id="Path_10" d="M64.8099 355.307V357.307" stroke="#999999" stroke-width="4" stroke-linecap="round" stroke-linejoin="round"/>
</g>
<g id="Group_3">
<path id="Path_11" d="M240.562 163.859V165.859" stroke="#999999" stroke-width="4" stroke-linecap="round" stroke-linejoin="round"/>
<path id="Path_12" d="M240.562 175.656V350.408" stroke="#999999" stroke-width="4" stroke-linecap="round" stroke-linejoin="round" stroke-dasharray="3.95 9.87"/>
<path id="Path_13" d="M240.562 355.307V357.307" stroke="#999999" stroke-width="4" stroke-linecap="round" stroke-linejoin="round"/>
</g>
<g id="Group_4">
<path id="Path_14" d="M121.527 121.072C121.527 102.077 136.932 86.6816 155.937 86.6816" stroke="#999999" stroke-width="4" stroke-linecap="round" stroke-linejoin="round"/>
<path id="Path_15" d="M123.027 132.371L131.13 120.074C131.93 118.874 131.03 117.275 129.629 117.275H113.425C112.024 117.275 111.124 118.874 111.924 120.074L120.027 132.371C120.727 133.47 122.327 133.47 123.027 132.371Z" fill="#999999"/>
</g>
<g id="Group_5">
<path id="Path_16" d="M346.493 314.619L183.345 324.716C176.643 325.116 171.141 320.117 171.141 313.419V78.7827C171.141 72.0845 176.643 67.3858 183.345 68.1856L346.493 87.9802C351.695 88.58 355.896 93.7786 355.896 99.577V303.522C355.896 309.32 351.695 314.319 346.493 314.619Z" fill="#FFD493"/>
<path id="Path_17" fill-rule="evenodd" clip-rule="evenodd" d="M331.189 217.146L199.35 214.947C194.848 214.847 191.147 211.148 191.147 206.649V97.9786C191.147 93.0799 195.449 89.181 200.35 89.7808L332.289 103.977C336.49 104.477 339.691 107.976 339.691 112.175V208.848C339.691 213.547 335.89 217.246 331.189 217.146V217.146Z" stroke="#DD7E10" stroke-width="4" stroke-linecap="round" stroke-linejoin="round" stroke-dasharray="4 10"/>
<path id="Shape_2" d="M196.95 304.624L196.852 302.626C196.843 302.627 196.834 302.627 196.825 302.628L196.95 304.624ZM196.95 235.743L196.953 233.743H196.95V235.743ZM254.167 235.843L254.163 237.843H254.167V235.843ZM259.368 296.226H257.368C257.368 296.249 257.368 296.272 257.369 296.295L259.368 296.226ZM194.938 237.103C194.143 236.336 192.877 236.358 192.11 237.153C191.343 237.948 191.365 239.214 192.16 239.981L194.938 237.103ZM256.179 301.764C256.974 302.531 258.24 302.509 259.007 301.714C259.774 300.919 259.751 299.653 258.957 298.886L256.179 301.764ZM259.102 238.535C259.872 237.743 259.854 236.476 259.062 235.707C258.269 234.937 257.003 234.955 256.233 235.747L259.102 238.535ZM191.814 302.029C191.044 302.821 191.063 304.087 191.855 304.857C192.647 305.627 193.913 305.609 194.683 304.817L191.814 302.029ZM284.676 300.327L284.747 302.325C284.755 302.325 284.763 302.325 284.771 302.324L284.676 300.327ZM284.676 235.844L284.68 233.844H284.676V235.844ZM334.991 235.944L334.987 237.944H334.991V235.944ZM339.592 292.629H337.592C337.592 292.653 337.593 292.676 337.594 292.7L339.592 292.629ZM284.311 237.248C283.542 236.455 282.276 236.435 281.483 237.204C280.69 237.973 280.67 239.239 281.439 240.032L284.311 237.248ZM337.055 297.417C337.824 298.21 339.09 298.23 339.883 297.461C340.676 296.692 340.696 295.426 339.927 294.633L337.055 297.417ZM339.567 238.393C340.313 237.578 340.257 236.313 339.442 235.567C338.627 234.821 337.362 234.877 336.616 235.692L339.567 238.393ZM279.799 297.775C279.054 298.59 279.11 299.855 279.924 300.601C280.739 301.347 282.004 301.291 282.75 300.476L279.799 297.775ZM254.069 299.827L196.852 302.626L197.047 306.622L254.264 303.822L254.069 299.827ZM196.825 302.628C194.823 302.753 193.248 301.219 193.248 299.225H189.248C189.248 303.43 192.675 306.895 197.074 306.62L196.825 302.628ZM193.248 299.225V241.441H189.248V299.225H193.248ZM193.248 241.441C193.248 239.37 194.929 237.743 196.95 237.743V233.743C192.768 233.743 189.248 237.114 189.248 241.441H193.248ZM196.946 237.743L254.163 237.843L254.17 233.843L196.953 233.743L196.946 237.743ZM254.167 237.843C255.891 237.843 257.368 239.273 257.368 241.241H261.368C261.368 237.211 258.244 233.843 254.167 233.843V237.843ZM257.368 241.241V296.226H261.368V241.241H257.368ZM257.369 296.295C257.43 298.043 255.93 299.698 254.029 299.829L254.304 303.82C258.205 303.551 261.507 300.207 261.367 296.157L257.369 296.295ZM192.16 239.981L256.179 301.764L258.957 298.886L194.938 237.103L192.16 239.981ZM258.957 298.886L194.938 237.103L192.16 239.981L256.179 301.764L258.957 298.886ZM256.233 235.747L191.814 302.029L194.683 304.817L259.102 238.535L256.233 235.747ZM194.683 304.817L259.102 238.535L256.233 235.747L191.814 302.029L194.683 304.817ZM334.896 295.93L284.581 298.329L284.771 302.324L335.086 299.925L334.896 295.93ZM284.605 298.328C283.054 298.383 281.675 297.117 281.675 295.228H277.675C277.675 299.138 280.697 302.47 284.747 302.325L284.605 298.328ZM281.675 295.228V241.143H277.675V295.228H281.675ZM281.675 241.143C281.675 239.173 283.154 237.844 284.676 237.844V233.844C280.797 233.844 277.675 237.115 277.675 241.143H281.675ZM284.672 237.844L334.987 237.944L334.995 233.944L284.68 233.844L284.672 237.844ZM334.991 237.944C336.279 237.944 337.592 239.128 337.592 241.043H341.592C341.592 237.359 338.904 233.944 334.991 233.944V237.944ZM337.592 241.043V292.629H341.592V241.043H337.592ZM337.594 292.7C337.659 294.52 336.295 295.876 334.914 295.929L335.068 299.926C338.889 299.779 341.726 296.336 341.591 292.557L337.594 292.7ZM281.439 240.032L337.055 297.417L339.927 294.633L284.311 237.248L281.439 240.032ZM339.927 294.633L284.311 237.248L281.439 240.032L337.055 297.417L339.927 294.633ZM336.616 235.692L279.799 297.775L282.75 300.476L339.567 238.393L336.616 235.692ZM282.75 300.476L339.567 238.393L336.616 235.692L279.799 297.775L282.75 300.476Z" fill="#DD7E10"/>
<path id="Path_18" opacity="0.2" d="M345.494 203.952L207.353 201.652C204.252 201.552 201.751 199.053 201.751 195.954V80.9851C201.751 77.5861 204.752 74.8868 208.053 75.2867L346.194 90.0827C349.095 90.3826 351.295 92.8819 351.295 95.7811V198.253C351.295 201.452 348.695 204.052 345.494 203.952Z" fill="#999999"/>
<path id="Path_19" d="M363.798 192.853L218.956 190.453C216.155 190.453 213.954 188.154 213.954 185.355V64.3878C213.954 61.3886 216.555 58.9893 219.556 59.3891L364.499 74.9849C367.099 75.2848 369 77.3842 369 79.9835V187.754C369 190.653 366.699 192.853 363.798 192.853Z" fill="#FFBE5C"/>
<path id="Shape_3" d="M299.579 105.778C299.579 104.674 298.683 103.778 297.579 103.778C296.474 103.778 295.579 104.674 295.579 105.778H299.579ZM295.579 149.366C295.579 150.471 296.474 151.366 297.579 151.366C298.683 151.366 299.579 150.471 299.579 149.366H295.579ZM318.166 130.87C319.269 130.936 320.216 130.096 320.282 128.993C320.347 127.891 319.507 126.943 318.404 126.878L318.166 130.87ZM276.492 124.378C275.389 124.312 274.442 125.152 274.376 126.255C274.311 127.358 275.151 128.305 276.254 128.37L276.492 124.378ZM295.579 105.778V149.366H299.579V105.778H295.579ZM318.404 126.878L276.492 124.378L276.254 128.37L318.166 130.87L318.404 126.878Z" fill="white"/>
</g>
</g>
</g>
</svg>

<svg xmlns="http://www.w3.org/2000/svg" width="400" height="400" fill="none" viewBox="0 0 400 400"><path fill="#F0F3F5" d="M194.349 31.997A12.974 12.974 0 0 0 181.345 19H43.004A12.974 12.974 0 0 0 30 31.997V241.34a12.974 12.974 0 0 0 13.004 12.996h267.679a12.974 12.974 0 0 0 13.004-12.996V57.99a12.975 12.975 0 0 0-13.004-12.997h-103.23c-7.303 0-13.104-5.799-13.104-12.997"/><path fill="#999" d="M56.208 141.167v-2a2 2 0 0 0-2 2zm17.105 0h2a2 2 0 0 0-2-2zm0 16.495v2a2 2 0 0 0 2-2zm-17.105 0h-2a2 2 0 0 0 2 2zm175.752-16.495v-2a2 2 0 0 0-2 2zm17.105 0h2a2 2 0 0 0-2-2zm0 16.495v2a2 2 0 0 0 2-2zm-17.105 0h-2a2 2 0 0 0 2 2zM56.208 364.504v-2a2 2 0 0 0-2 2zm17.105 0h2a2 2 0 0 0-2-2zm0 16.496v2a2 2 0 0 0 2-2zm-17.105 0h-2a2 2 0 0 0 2 2zm175.752-16.496v-2a2 2 0 0 0-2 2zm17.105 0h2a2 2 0 0 0-2-2zm0 16.496v2a2 2 0 0 0 2-2zm-17.105 0h-2a2 2 0 0 0 2 2zM56.208 143.167h17.105v-4H56.208zm15.105-2v16.495h4v-16.495zm2 14.495H56.208v4h17.105zm-15.105 2v-16.495h-4v16.495zm173.752-14.495h17.105v-4H231.96zm15.105-2v16.495h4v-16.495zm2 14.495H231.96v4h17.105zm-15.105 2v-16.495h-4v16.495zM56.208 366.504h17.105v-4H56.208zm15.105-2V381h4v-16.496zm2 14.496H56.208v4h17.105zm-15.105 2v-16.496h-4V381zm173.752-14.496h17.105v-4H231.96zm15.105-2V381h4v-16.496zm2 14.496H231.96v4h17.105zm-15.105 2v-16.496h-4V381z"/><path stroke="#999" stroke-linecap="round" stroke-linejoin="round" stroke-width="4" d="M80.215 149.363h2"/><path stroke="#999" stroke-dasharray="4.16 10.4" stroke-linecap="round" stroke-linejoin="round" stroke-width="4" d="M92.62 149.363h125.836"/><path stroke="#999" stroke-linecap="round" stroke-linejoin="round" stroke-width="4" d="M223.658 149.363h2"/><g stroke="#999" stroke-linecap="round" stroke-linejoin="round" stroke-width="4"><path d="M80.215 372.704h2"/><path stroke-dasharray="4.16 10.4" d="M92.619 372.704h125.837"/><path d="M223.658 372.704h2"/></g><g stroke="#999" stroke-linecap="round" stroke-linejoin="round" stroke-width="4"><path d="M64.81 163.859v2"/><path stroke-dasharray="3.95 9.87" d="M64.81 175.656v174.752"/><path d="M64.81 355.307v2"/></g><g stroke="#999" stroke-linecap="round" stroke-linejoin="round" stroke-width="4"><path d="M240.562 163.859v2"/><path stroke-dasharray="3.95 9.87" d="M240.562 175.656v174.752"/><path d="M240.562 355.307v2"/></g><path stroke="#999" stroke-linecap="round" stroke-linejoin="round" stroke-width="4" d="M121.527 121.072c0-18.995 15.405-34.39 34.41-34.39"/><path fill="#999" d="m123.027 132.371 8.103-12.297c.8-1.2-.1-2.799-1.501-2.799h-16.204c-1.401 0-2.301 1.599-1.501 2.799l8.103 12.297a1.777 1.777 0 0 0 3 0"/><path fill="#FFD493" d="m346.493 314.619-163.148 10.097c-6.702.4-12.204-4.599-12.204-11.297V78.783c0-6.698 5.502-11.397 12.204-10.597L346.493 87.98c5.202.6 9.403 5.799 9.403 11.597v203.945c0 5.798-4.201 10.797-9.403 11.097"/><path stroke="#DD7E10" stroke-dasharray="4 10" stroke-linecap="round" stroke-linejoin="round" stroke-width="4" d="m331.189 217.146-131.839-2.199c-4.502-.1-8.203-3.799-8.203-8.298V97.979c0-4.9 4.302-8.798 9.203-8.198l131.939 14.196c4.201.5 7.402 3.999 7.402 8.198v96.673c0 4.699-3.801 8.398-8.502 8.298" clip-rule="evenodd"/><path fill="#DD7E10" d="m196.95 304.624-.098-1.998-.027.002zm0-68.881.003-2h-.003zm57.217.1-.004 2h.004zm5.201 60.383h-2l.001.069zm-64.43-59.123a2 2 0 1 0-2.778 2.878zm61.241 64.661a2 2 0 1 0 2.778-2.878zm2.923-63.229a2 2 0 1 0-2.869-2.788zm-67.288 63.494a2 2 0 0 0 2.869 2.788zm92.862-1.702.071 1.998.024-.001zm0-64.483.004-2h-.004zm50.315.1-.004 2h.004zm4.601 56.685h-2l.002.071zm-55.281-55.381a2 2 0 1 0-2.872 2.784zm52.744 60.169a2 2 0 1 0 2.872-2.784zm2.512-59.024a2 2 0 1 0-2.951-2.701zm-59.768 59.382a2 2 0 1 0 2.951 2.701zm-25.73 2.052-57.217 2.799.195 3.996 57.217-2.8zm-57.244 2.801c-2.002.125-3.577-1.409-3.577-3.403h-4c0 4.205 3.427 7.67 7.826 7.395zm-3.577-3.403v-57.784h-4v57.784zm0-57.784a3.697 3.697 0 0 1 3.702-3.698v-4c-4.182 0-7.702 3.371-7.702 7.698zm3.698-3.698 57.217.1.007-4-57.217-.1zm57.221.1c1.724 0 3.201 1.43 3.201 3.398h4c0-4.03-3.124-7.398-7.201-7.398zm3.201 3.398v54.985h4v-54.985zm.001 55.054c.061 1.748-1.439 3.403-3.34 3.534l.275 3.991c3.901-.269 7.203-3.613 7.063-7.663zm-65.209-56.314 64.019 61.783 2.778-2.878-64.019-61.783zm66.797 58.905-64.019-61.783-2.778 2.878 64.019 61.783zm-2.724-63.139-64.419 66.282 2.869 2.788 64.419-66.282zm-61.55 69.07 64.419-66.282-2.869-2.788-64.419 66.282zm140.213-8.887-50.315 2.399.19 3.995 50.315-2.399zm-50.291 2.398c-1.551.055-2.93-1.211-2.93-3.1h-4c0 3.91 3.022 7.242 7.072 7.097zm-2.93-3.1v-54.085h-4v54.085zm0-54.085c0-1.97 1.479-3.299 3.001-3.299v-4c-3.879 0-7.001 3.271-7.001 7.299zm2.997-3.299 50.315.1.008-4-50.315-.1zm50.319.1c1.288 0 2.601 1.184 2.601 3.099h4c0-3.684-2.688-7.099-6.601-7.099zm2.601 3.099v51.586h4v-51.586zm.002 51.657c.065 1.82-1.299 3.176-2.68 3.229l.154 3.997c3.821-.147 6.658-3.59 6.523-7.369zm-56.155-52.668 55.616 57.385 2.872-2.784-55.616-57.385zm58.488 54.601-55.616-57.385-2.872 2.784 55.616 57.385zm-3.311-58.941-56.817 62.083 2.951 2.701 56.817-62.083zm-53.866 64.784 56.817-62.083-2.951-2.701-56.817 62.083z"/><path fill="#999" d="m345.494 203.952-138.141-2.3c-3.101-.1-5.602-2.599-5.602-5.698V80.985c0-3.399 3.001-6.098 6.302-5.698l138.141 14.796c2.901.3 5.101 2.799 5.101 5.698v102.472c0 3.199-2.6 5.799-5.801 5.699" opacity=".2"/><path fill="#FFBE5C" d="m363.798 192.853-144.842-2.4c-2.801 0-5.002-2.299-5.002-5.098V64.388c0-3 2.601-5.399 5.602-4.999l144.943 15.596c2.6.3 4.501 2.4 4.501 4.999v107.77c0 2.899-2.301 5.099-5.202 5.099"/><path fill="#fff" d="M299.579 105.778a2 2 0 0 0-4 0zm-4 43.588a2 2 0 1 0 4 0zm22.587-18.496a2 2 0 1 0 .238-3.992zm-41.674-6.492a2 2 0 1 0-.238 3.992zm19.087-18.6v43.588h4v-43.588zm22.825 21.1-41.912-2.5-.238 3.992 41.912 2.5z"/></svg>
